!!!OTL: Die Hauptmannstochter Eli zijon w'oreho
!!!ARE: Europa, Osteuropa? (juedisch)
!!!YOR: 5, S. 138
!!    1877 gedruckt in Frankfurt
!!!SCT: Q3101F
!!!YEM: Copyright 1995, estate of Helmut Schaffrath.
**kern
*ICvox
*Ivox
*M3/4
*k[b-e-]
*g:
{4d
=1
2g
4f#
=2
4g
4r
4a
=3
4b-
4a
4g
=4
2fn
4r}
=5
{2b-
4b-
=6
4dd
4r
4dd
=7
4cc
4dd
4cc
=8
2b-
4r}
=9
{2dd
4dd
=10
2cc
4cc
=11
2b-
4b-
=12
2.a}
=13
{4a
4b-
4cc
=14
4dd
4ee-
4dd
=15
4cc
4b-
4a
=16
2.g}
==
!!!AGN: religioes, Synagogen - Weise
!! Melodievergleich zu Q0101D, anderes Lied.
!!!ONB: ESAC (Essen Associative Code) Database: BALLADE
!!!AMT: simple triple
!!!AIN: vox
!!!EED: Helmut Schaffrath
!!!EEV: 1.0
*-
